src/icons/io.github.kolumni.Bazaar.Kde.svg

<svg width="128" height="128" viewBox="0 0 128 128" fill="none" xmlns="http://www.w3.org/2000/svg">
<path d="M72.9494 7.34277L53.962 9.16041V87.3425L72.7483 84.5142V51.1804L98.0007 88.1522L117.798 81.8883L91.9393 46.3319L118 12.7957L97.7996 8.15112L72.7483 41.686L72.9494 7.34277ZM29.9097 26.3951C29.6953 26.4171 29.4882 26.512 29.3272 26.674L21.875 34.1249C21.5616 34.4391 21.5026 34.9263 21.7336 35.3068L30.4586 49.6767C28.9111 52.2783 27.6708 55.0833 26.7844 58.0423L10.7667 61.374C10.3211 61.4662 10 61.8612 10 62.3185V72.8558C10 73.3015 10.3049 73.6875 10.7343 73.7913L26.281 77.5913C27.11 81.0184 28.3947 84.2671 30.0927 87.2531L21.094 100.976C20.8429 101.359 20.8954 101.864 21.2197 102.187L28.6694 109.638C28.9827 109.951 29.4718 110.012 29.8539 109.782L43.9552 101.218C46.7252 102.816 49.7124 104.074 52.8696 104.927L56.1598 120.746C56.2524 121.195 56.6486 121.513 57.103 121.513H67.6418C68.0848 121.513 68.4714 121.211 68.5772 120.776L72.4525 104.925C75.707 104.046 78.785 102.737 81.6224 101.066L95.5188 110.178C95.9009 110.429 96.4062 110.379 96.7306 110.055L104.183 102.604C104.498 102.289 104.554 101.801 104.323 101.422L99.25 93.0615L97.6088 93.5804C97.3696 93.6559 97.1087 93.5672 96.9679 93.3585C96.9679 93.3585 93.7323 88.6217 89.5533 82.5058C84.5577 92.2829 74.394 98.98 62.6571 98.98C45.982 98.98 32.4629 85.4606 32.4629 68.7846C32.4629 56.5171 39.7799 45.967 50.2839 41.2409V33.4515C48.3722 34.1202 46.524 34.9265 44.7686 35.8827C44.7674 35.8815 44.7661 35.8784 44.7611 35.8739L30.5378 26.5451C30.3462 26.4198 30.1241 26.373 29.9097 26.3951Z" fill="#FCFCFC"/>
</svg>

<svg xmlns="http://www.w3.org/2000/svg" width="128" height="128" fill="none" viewBox="0 0 128 128"><path fill="#fcfcfc" d="M72.95 7.343 53.961 9.16v78.183l18.786-2.829V51.18L98 88.152l19.797-6.264-25.859-35.556L118 12.796 97.8 8.15 72.748 41.686zM29.91 26.395a.96.96 0 0 0-.583.279l-7.452 7.45a.964.964 0 0 0-.141 1.183l8.725 14.37a37.3 37.3 0 0 0-3.675 8.365l-16.017 3.332a.964.964 0 0 0-.767.944v10.538a.96.96 0 0 0 .734.935l15.547 3.8a37.2 37.2 0 0 0 3.812 9.662l-8.999 13.723a.96.96 0 0 0 .126 1.211l7.45 7.451a.97.97 0 0 0 1.184.144l14.101-8.564a37.3 37.3 0 0 0 8.915 3.709l3.29 15.819a.96.96 0 0 0 .943.767h10.539c.443 0 .83-.302.935-.737l3.876-15.851a37.2 37.2 0 0 0 9.17-3.859l13.896 9.112a.964.964 0 0 0 1.212-.123l7.452-7.451a.96.96 0 0 0 .14-1.182l-5.073-8.36-1.641.518a.57.57 0 0 1-.641-.221l-7.415-10.853C84.558 92.283 74.394 98.98 62.657 98.98c-16.675 0-30.194-13.52-30.194-30.195 0-12.268 7.317-22.818 17.82-27.544v-7.79a37 37 0 0 0-5.514 2.432l-.008-.01-14.223-9.328a.96.96 0 0 0-.628-.15"/></svg>
